packages/kronos-fna-icons/src/bin.svg

<svg version="1.1" xmlns="http://www.w3.org/2000/svg" width="15" height="20" viewBox="0 0 15 20">
<title>bin</title>
<path d="M1.25 6.25v11.719c0 0.645 0.519 1.172 1.154 1.172h10.385c0.635 0 1.154-0.527 1.154-1.172v-11.719h-12.692zM4.712 16.797h-1.154v-8.203h1.154v8.203zM7.019 16.797h-1.154v-8.203h1.154v8.203zM9.327 16.797h-1.154v-8.203h1.154v8.203zM11.635 16.797h-1.154v-8.203h1.154v8.203z"></path>
<path d="M14.135 2.344h-3.75v-1.465c0-0.483-0.389-0.879-0.865-0.879h-4.038c-0.476 0-0.865 0.396-0.865 0.879v1.465h-3.75c-0.476 0-0.865 0.396-0.865 0.879v1.465h15v-1.465c0-0.483-0.389-0.879-0.865-0.879v0zM9.231 2.344h-3.462v-1.157h3.462v1.157z"></path>
</svg>

<svg viewBox="0 0 15 20" xmlns="http://www.w3.org/2000/svg">
    <title>bin</title>
    <path d="M1.25 6.25v11.719c0 .645.519 1.172 1.154 1.172h10.385c.635 0 1.154-.527 1.154-1.172V6.25H1.25zm3.462 10.547H3.558V8.594h1.154v8.203zm2.307 0H5.865V8.594h1.154v8.203zm2.308 0H8.173V8.594h1.154v8.203zm2.308 0h-1.154V8.594h1.154v8.203zM14.135 2.344h-3.75V.879A.875.875 0 0 0 9.52 0H5.482a.875.875 0 0 0-.865.879v1.465H.867a.875.875 0 0 0-.865.879v1.465h15V3.223a.875.875 0 0 0-.865-.879h-.002zm-4.904 0H5.769V1.187h3.462v1.157z"/>
</svg>
